assets/icons/in-transit.svg

<svg width="32" height="31" viewBox="0 0 32 31" fill="none" xmlns="http://www.w3.org/2000/svg">
<path d="M23.8622 14.7082H19.77C19.2295 13.2558 17.814 12.204 16.1411 12.204C14.4681 12.204 13.0526 13.2558 12.5121 14.7082H8.4199C7.99523 14.7082 5.84618 14.583 5.84618 12.204V10.9519C5.84618 8.66062 7.82794 8.44777 8.4199 8.44777H21.5201C22.0606 9.90018 23.4762 10.9519 25.1491 10.9519C26.173 10.9519 27.1549 10.5562 27.8789 9.85175C28.6029 9.14732 29.0096 8.19191 29.0096 7.19569C29.0096 6.19948 28.6029 5.24406 27.8789 4.53963C27.1549 3.8352 26.173 3.43945 25.1491 3.43945C23.4762 3.43945 22.0606 4.4912 21.5201 5.94361H8.4199C6.34805 5.94361 3.27246 7.27082 3.27246 10.9519V12.204C3.27246 15.8851 6.34805 17.2123 8.4199 17.2123H12.5121C13.0526 18.6647 14.4681 19.7165 16.1411 19.7165C17.814 19.7165 19.2295 18.6647 19.77 17.2123H23.8622C24.2869 17.2123 26.4359 17.3375 26.4359 19.7165V20.9686C26.4359 23.2599 24.4542 23.4727 23.8622 23.4727H10.762C10.2215 22.0203 8.80596 20.9686 7.13304 20.9686C6.10915 20.9686 5.1272 21.3643 4.4032 22.0687C3.6792 22.7732 3.27246 23.7286 3.27246 24.7248C3.27246 25.721 3.6792 26.6764 4.4032 27.3809C5.1272 28.0853 6.10915 28.481 7.13304 28.481C8.80596 28.481 10.2215 27.4293 10.762 25.9769H23.8622C25.9341 25.9769 29.0096 24.6372 29.0096 20.9686V19.7165C29.0096 16.0479 25.9341 14.7082 23.8622 14.7082ZM25.1491 5.94361C25.4904 5.94361 25.8177 6.07553 26.059 6.31034C26.3004 6.54515 26.4359 6.86362 26.4359 7.19569C26.4359 7.52776 26.3004 7.84623 26.059 8.08104C25.8177 8.31586 25.4904 8.44777 25.1491 8.44777C24.8078 8.44777 24.4805 8.31586 24.2391 8.08104C23.9978 7.84623 23.8622 7.52776 23.8622 7.19569C23.8622 6.86362 23.9978 6.54515 24.2391 6.31034C24.4805 6.07553 24.8078 5.94361 25.1491 5.94361ZM7.13304 25.9769C6.79174 25.9769 6.46443 25.845 6.22309 25.6102C5.98176 25.3753 5.84618 25.0569 5.84618 24.7248C5.84618 24.3927 5.98176 24.0743 6.22309 23.8394C6.46443 23.6046 6.79174 23.4727 7.13304 23.4727C7.47434 23.4727 7.80165 23.6046 8.04299 23.8394C8.28432 24.0743 8.4199 24.3927 8.4199 24.7248C8.4199 25.0569 8.28432 25.3753 8.04299 25.6102C7.80165 25.845 7.47434 25.9769 7.13304 25.9769Z" fill="#15347D"/>
</svg>

<svg width="32" height="31" fill="none" xmlns="http://www.w3.org/2000/svg"><path d="M23.862 14.708H19.77a3.868 3.868 0 00-3.629-2.504 3.868 3.868 0 00-3.629 2.504H8.42c-.425 0-2.574-.125-2.574-2.504v-1.252c0-2.291 1.982-2.504 2.574-2.504h13.1a3.868 3.868 0 003.63 2.504 3.915 3.915 0 002.729-1.1 3.705 3.705 0 001.13-2.656c0-.997-.406-1.952-1.13-2.656a3.916 3.916 0 00-2.73-1.1 3.868 3.868 0 00-3.629 2.504H8.42c-2.072 0-5.148 1.327-5.148 5.008v1.252c0 3.681 3.076 5.008 5.148 5.008h4.092a3.868 3.868 0 003.63 2.505 3.868 3.868 0 003.628-2.505h4.092c.425 0 2.574.125 2.574 2.505v1.252c0 2.29-1.982 2.504-2.574 2.504h-13.1a3.868 3.868 0 00-3.629-2.504 3.916 3.916 0 00-2.73 1.1 3.706 3.706 0 00-1.13 2.656c0 .996.406 1.951 1.13 2.656a3.916 3.916 0 002.73 1.1 3.868 3.868 0 003.629-2.504h13.1c2.072 0 5.148-1.34 5.148-5.008v-1.253c0-3.668-3.076-5.008-5.148-5.008zm1.287-8.764c.341 0 .669.132.91.366.241.235.377.554.377.886 0 .332-.136.65-.377.885a1.305 1.305 0 01-.91.367c-.341 0-.669-.132-.91-.367a1.235 1.235 0 01-.377-.885c0-.332.136-.65.377-.886.241-.234.569-.366.91-.366zM7.133 25.977c-.341 0-.669-.132-.91-.367a1.235 1.235 0 01-.377-.885c0-.332.136-.65.377-.886.241-.234.569-.366.91-.366.341 0 .669.132.91.366.241.235.377.554.377.886 0 .332-.136.65-.377.885a1.305 1.305 0 01-.91.367z" fill="#15347D"/></svg>
